X:1
T:Fur Elise
C:Beethoven
%%score {1}
L:1/8
Q:3/8=40
M:3/8
K:C
V:1
 e/^d/ |: e/^d/e/B/=d/c/ | A z/ C/E/A/ | B z/ E/^G/B/ | c z/ E/e/^d/ | e/^d/e/B/=d/c/ | %6
 A z/ C/E/A/ | B z/ D/c/B/ |1 [CA] z e/^d/ :|2 [CA] z/ B/c/d/ |: e3/2 G/f/e/ | d3/2 F/e/d/ | %12
 c3/2 E/d/c/ | B z/ E/e/ z/ | z/ e/e'/ z/ z/ ^d/ | e/ z/ z/ ^d/e/d/ | e/^d/e/B/=d/c/ | %17
 A z/ C/E/A/ | B z/ E/^G/B/ | c z/ E/e/^d/ | e/^d/e/B/=d/c/ | A z/ C/E/A/ | B z/ D/c/B/ |1 %23
 [CA] z/ B/c/d/ :|2 [CA] z/ [Ec]/[Fc]/[EGc]/ ||{FA} c2 f/>e/ | ed _b/>a/ | a/g/f/e/d/c/ | %28
 _BA{/B} A/4G/4A/4B/4 | c2 d/^d/ | e>ef/A/ | c2{dcBc} d/>B/ | %32
